X:1
T:Title
%%score { ( 1 3 4 ) | ( 2 5 ) }
L:1/8
M:4/4
K:G
V:1 treble nm="Grand Piano"
V:3 treble 
V:4 treble 
V:2 bass 
V:5 bass 
V:1
 z4 z2[Q:1/4=92] D>D | [B,G]>[B,G] [DG]>A G>D G>A | B>B B>B B2 G>B | d>d d>d d>B G>A | %4
 B>B A>G [DFA]2[K:bass] [G,D]>[F,CD] | [B,G]>[B,G] [DG]>A G>D G>A | B>B B>B B2 G>B | %7
 d>d d>d d>B [DG]>[EGA] |[M:7/8] [DGB]>[B,DG][CFA]>[CFA] [B,G]3 |[M:1/4] D>G |[M:4/4] B6 z2 | %11
 d4 .G2 z2 | G6 z2 | A6 z2 | B6 z2 | d4 .G2 z2 | B6 z2 |[M:3/4] G6 |] %18
V:2
 z4 z2 D,>D, | [G,,G,]>[G,,G,] [B,,G,]>[D,F,C] [G,B,]>[G,B,][K:treble] [G,B,D]>[G,CD] | %2
 [G,DG]>[G,DG] [G,DG]>[G,DG] [G,DG]2 [G,B,]>[G,D] | %3
 [G,B,G]>[G,B,G] [G,B,G]>[G,B,G] [G,B,G]>[G,D] [G,B,D]>[G,CD] | %4
 [G,DG]>[G,DG][K:bass] [F,D]>[E,^CE] D,>C, B,,>A,, | %5
 [G,,G,]>[G,,G,] [B,,G,]>[D,F,C] [G,B,]>[G,B,][K:treble] [G,B,D]>[G,CD] | %6
 [G,DG]>[G,DG] [G,DG]>[G,DG] [G,DG]2 [G,B,]>[G,D] | %7
 [G,B,G]>[G,B,G] [G,B,G]>[G,B,G] [G,B,G]>[G,DG][K:bass] B,,>C, |[M:7/8] D,>D,D,>D, G,,3 | %9
[M:1/4] z2 |[M:4/4][K:treble] z4 C2 C2 | [G,G]2 z2 z4 | [E,B,E]2 [E,B,]2 A,,>A,, A,,>A,, | %13
 [D,D]>[D,D] [D,D]>[D,D] [D,D]2 z2 | z4 D2 C2 | [G,G]2 z2 z4 | [G,DG]2[K:bass] G,2 G,>G, D,>D, | %17
[M:3/4] z z/ B,/ C>C B,2 |] %18
V:3
 x8 | x8 | x8 | x8 | x6[K:bass] x2 | x8 | x8 | x8 |[M:7/8] x7 |[M:1/4] x2 | %10
[M:4/4] z2 D2 z z/ B/ A>G | z z/ G/ G>G [DB]-[DGB] B>A | z2 E2 [^CE]>[CEG] [CGA]>[CGB] | %13
 F>F F>F F2 D>G | z2 D2 z z/ B/ A>G | z z/ G/ G>G [CB]-[CGB] G>A | z2 D2 [DG]>[B,DG] [CFA]>[CFA] | %17
[M:3/4] B,>D E>E D2 |] %18
V:4
 x8 | x8 | x8 | x8 | x6[K:bass] x2 | x8 | x8 | x8 |[M:7/8] x7 |[M:1/4] x2 |[M:4/4] z4 G2 z2 | x8 | %12
 x8 | x8 | z4 G2 z2 | x8 | x8 |[M:3/4] x6 |] %18
V:5
 x8 | x6[K:treble] x2 | x8 | x8 | x2[K:bass] x6 | x6[K:treble] x2 | x8 | x6[K:bass] x2 | %8
[M:7/8] x7 |[M:1/4] x2 |[M:4/4][K:treble] [G,DG]2 G,2 G,->[G,C] [G,D]->[G,B,D] | %11
 B,->[G,B,-] [G,B,-]>[G,B,] G,G, G>F | x8 | x8 | [G,DG]2 G,2 G,->[G,C] [G,D]->[G,B,D] | %15
 B,->[G,B,-] [G,B,-]>[G,B,] G, .G,3 | x2[K:bass] x6 |[M:3/4] G,,6 |] %18

